tela-icon-theme/src/scalable/apps/heroic.svg

<svg width="64" height="64" version="1.1" xmlns="http://www.w3.org/2000/svg">
 <rect x="6" y="6" width="52" height="52" rx="8" ry="8" fill="#3584e4" stroke-width=".92858"/>
 <path d="m32 10-18 5.8035 9.1958 31.424 8.8042 6.773 8.8042-6.773 9.1958-31.424z" fill="#3d3846"/>
 <path d="m31.984 11-3.9844 5.1992 2.0039 24.238 1.9922 2.5625 1.9844-2.543 2.0195-24.25zm-7.1602 30-0.82422 1.9922 0.83984 2.0078 4.2852-0.75781 0.875-1.2461-0.875-1.25zm14.148 0-4.2969 0.74609-0.875 1.25 0.875 1.2461 4.2852 0.75781 0.83984-2.0078zm-6.9688 4-1.2461 0.875-0.75781 4.2891 2.0078 0.83594 1.9922-0.82422-0.75-4.3008z" fill="#ffc414"/>
</svg>

<svg xmlns="http://www.w3.org/2000/svg" width="64" height="64"><rect width="52" height="52" x="6" y="6" fill="#3584e4" rx="8" ry="8"/><path fill="#3d3846" d="m32 10-18 5.803 9.196 31.424L32 54.002l8.804-6.773L50 15.804z"/><path fill="#ffc414" d="M31.984 11 28 16.2l2.004 24.237L31.996 43l1.984-2.543L36 16.207zm-7.16 30L24 42.992 24.84 45l4.285-.758.875-1.246-.875-1.25zm14.148 0-4.297.746-.875 1.25.875 1.246L38.96 45l.84-2.008zm-6.969 4-1.246.875-.758 4.29 2.008.835 1.992-.824-.75-4.301z"/></svg>
